X:1
T: Mr. Macintyre of Glencoe
C:
R:Strathspey
Q: 128
K:D
M:4/4
L:1/16
|:E2|Dd3 d3B A3F D3F|G3E F3D E3D B,2E2|Dd3 d3B A3F D3F|B,E3 C3A, D4 D2E2|
Dd3 d3B A3F D3F|G3E F3D E3D B,2E2|DA,3 FD3 AF3 df3|Be3 c3A d6 fg|
a3f b3g a3f d2f2|efge a3f ef3 g2b2|af3 b3g a3f g2e2|fd3 a3f d6 fg|
a3f b3g a3f d2f2|efge a3f ef3 g2b2|af3 ge3 fd3 ec3|d3B A3F D6:|
